X:1
T: Happy Tom
C:
R:Strathspey
Q: 128
K:A
M:4/4
L:1/16
|:A,B,CD E3G A4 E3D|CE3 A3c BB,3 B,3C|A,B,CD E3G A4 a3e|dcBA GFED CA,3 A,4|
A,B,CD E3G A4 E3D|CE3 A3c BB,3 B,3C|A,B,CD E3G A4 a3e|dcBA GFED CA,3 A,2e2|
abc'd' e'2a2 f2d'2 e2c'2|d2b2 c2a2 B3c d2B2|abc'd' e'2a2 f2d'2 e2c'2|d2b2 e2fg a2A2 A2e2|
abc'd' e'2a2 f2d'2 e2c'2|d2b2 c2a2 B3c d2B2|A,B,CD E3G A4 a3A|dcBA GFED CA,3 A,4:|
